journy/img/media/wsj.svg

<svg fill="none" height="25" viewBox="0 0 49 25" width="49" xmlns="http://www.w3.org/2000/svg"><g clip-rule="evenodd" fill="#122842" fill-rule="evenodd"><path d="m12.2788 8.00761c-.1368.51034-.2615.96166-.3788 1.41433-.9369 3.60056-1.8717 7.20176-2.80793 10.80236-.31317 1.2057-.623 2.4115-.9449 3.6146-.03621.1375-.00134.34-.26891.3433-.283.0034-.24813-.2119-.28435-.3567-.6733-2.6342-1.33788-5.2704-2.00715-7.9059-1.13938-4.4925-2.29352-8.98163-3.4101-13.48013-.25751-1.03745-.77791-1.71544-1.876384-1.847552-.2575167-.030848-.3554269-.149548-.2702584-.422489h7.0059424v.33665c-.19917.050296-.41578.100593-.63105.157595-.99989.262882-1.2849.694086-1.04952 1.712086.2877 1.24735.61161 2.48665.93551 3.72461.91674 3.50666 1.84152 7.01133 2.76362 10.51733.02481.0905.05432.1784.13345.2743.10462-.395.21125-.79.31452-1.1857.78731-3.0091 1.57461-6.01812 2.35861-9.02786.0234-.08986.0409-.1938.0174-.28098-.393-1.50889-.7913-3.01711-1.1924-4.52399-.0402-.15156-.1046-.29641-.1582-.44328-.1965-.53247-.58481-.807423-1.14344-.859061-.12071-.01073-.23874-.039567-.36749-.062368v-.340673h7.01663v.338662c-.2588.050967-.5284.10931-.8.155583-.9154.155583-1.2085.755787-1.0462 1.612837.1851.97441.4306 1.93943.676 2.90109.9503 3.74071 1.9113 7.47944 2.8682 11.21874.0409.1596.0839.3186.1422.5412.0496-.1428.0872-.2313.1107-.3239 1.1226-4.3805 2.2472-8.76027 3.3584-13.14477.108-.42719.159-.87717.1737-1.31844.0262-.76584-.3541-1.231252-1.0944-1.417013-.3112-.077791-.6251-.144183-.9402-.21728v-.349392h5.094c.0811.242764.0322.384935-.2441.421819-1.0791.142171-1.6444.838946-1.9147 1.825416-.342 1.25138-.6773 2.5061-.9978 3.76351-.9456 3.70584-1.8825 7.41435-2.8233 11.12215-.564 2.2211-1.1334 4.4415-1.6907 6.664-.0395.1582-.0925.2159-.2575.2166-.169.0013-.1951-.0939-.2287-.222-1.0501-4.0659-2.1017-8.1326-3.1532-12.1979-.2998-1.1554-.5975-2.3109-.8973-3.46571-.0194-.07578-.0469-.14888-.0899-.28568z"/><path d="m34.2743.15621h.3574v7.90524c-.3903.07243-.3823.06975-.4332-.25148-.2448-1.54041-.6083-3.04595-1.3218-4.44552-.4547-.89193-1.024-1.69264-1.8871-2.24255-1.0153-.646476-2.4753-.625016-3.392.05432-.5747.4245-.8504 1.0294-.9744 1.71075-.2723 1.49681.2461 2.76629 1.1501 3.91908.7605.96905 1.6725 1.78988 2.5846 2.60938 1.2513 1.12327 2.5268 2.22247 3.575 3.55087.8946 1.1334 1.5813 2.3734 1.8127 3.8139.3413 2.1258-.002 4.0961-1.4801 5.7559-.8067.906-1.8401 1.4317-3.0258 1.653-1.6222.3025-3.1438.049-4.5495-.8443-.3359-.2126-.6766-.4741-1.1065-.407-.1884.0288-.4178.1227-.5278.2655-.1763.2287-.2923.5144-.3889.7914-.0657.1864-.1858.2078-.3186.1669-.0603-.0187-.1193-.1508-.1193-.232-.0067-2.4893-.0007-4.9787-.0114-7.4687-.0014-.3219.1871-.2394.397-.2374.055.3575.1033.7163.1663 1.0737.2991 1.6906.8577 3.276 1.9428 4.6353.6297.7873 1.3882 1.417 2.384 1.6786 1.8436.4828 3.5-.5023 4.0358-2.3935.5291-1.865.1039-3.5348-1.0522-5.0571-.9288-1.2212-2.0615-2.2405-3.1868-3.2686-1.1957-1.0931-2.4142-2.1641-3.394-3.46842-.6679-.88991-1.195-1.84823-1.3808-2.96212-.3286-1.96692.2985-4.4576 2.2513-5.663368 1.1152-.688054 2.3358-.8785096 3.6247-.7691989.8845.0744389 1.6718.3949939 2.4243.8449779.2588.154909.5465.272269.8349.360789.3319.10261.6042-.03956.7618-.352071.0583-.116017.0972-.242093.1395-.366157.0389-.114005.0697-.232034.108-.360122z"/><path d="m41.578.509916v-.348051h7.3633c.0819.339333.0818.337321-.2421.416454-.2206.052979-.4419.103275-.6578.170337-.6371.199173-.9543.592824-1.0046 1.258074-.0275.36683-.0463.735-.0463 1.10183-.0027 5.15571-.0027 10.31004-.0013 15.46574 0 1.1434-.1912 2.2453-.7478 3.2579-.7933 1.4425-2.0507 2.1976-3.6589 2.4122-1.1165.1489-2.205.0671-3.2109-.4815-1.3412-.7316-2.1104-1.8703-2.3337-3.3826-.1093-.7397-.0416-1.4478.3192-2.1118.4775-.8785 1.4398-1.3251 2.3083-1.089.8456.2293 1.2225.8657 1.2064 1.6819-.0127.68-.3031 1.2292-.8732 1.6188-.2675.1831-.5418.3575-.794.5587-.4345.348-.5331.7564-.2897 1.258.3803.782 1.0616 1.1595 1.8804 1.3151.6204.1187 1.2246.049 1.7691-.289.6324-.3937.9282-1.0247 1.0408-1.7201.1114-.6874.1791-1.3896.1804-2.085.0141-5.5762.0094-11.15237.0054-16.72855 0-.28636-.0282-.57539-.0651-.86108-.0865-.67129-.4855-1.058903-1.136-1.201074-.338-.073768-.6766-.145524-1.0119-.21728z"/></g></svg>

<svg width="49" height="25" viewBox="0 0 49 25" fill="none" xmlns="http://www.w3.org/2000/svg">
<path fill-rule="evenodd" clip-rule="evenodd" d="M12.2788 8.00761C12.142 8.51795 12.0173 8.96927 11.9 9.42194C10.9631 13.0225 10.0283 16.6237 9.09207 20.2243C8.7789 21.43 8.46907 22.6358 8.14717 23.8389C8.11096 23.9764 8.14583 24.1789 7.87826 24.1822C7.59526 24.1856 7.63013 23.9703 7.59391 23.8255C6.92061 21.1913 6.25603 18.5551 5.58676 15.9196C4.44738 11.4271 3.29324 6.93797 2.17666 2.43947C1.91915 1.40202 1.39875 0.72403 0.300276 0.591918C0.0427593 0.56107 -0.0551509 0.44237 0.0300176 0.169429H7.03596V0.506079C6.83679 0.556375 6.62018 0.606672 6.40491 0.663674C5.40502 0.926556 5.12001 1.35776 5.35539 2.37576C5.64309 3.62311 5.967 4.86241 6.2909 6.10037C7.20764 9.60703 8.13242 13.1117 9.05452 16.6177C9.07933 16.7082 9.10884 16.7961 9.18797 16.892C9.29259 16.497 9.39922 16.102 9.50249 15.7063C10.2898 12.6972 11.0771 9.68818 11.8611 6.67844C11.8845 6.58858 11.902 6.48464 11.8785 6.39746C11.4855 4.88857 11.0872 3.38035 10.6861 1.87347C10.6459 1.72191 10.5815 1.57706 10.5279 1.43019C10.3314 0.89772 9.94309 0.622767 9.38446 0.571129C9.26375 0.560399 9.14572 0.531562 9.01697 0.508761V0.168088H16.0336V0.50675C15.7748 0.557717 15.5052 0.61606 15.2336 0.662333C14.3182 0.817916 14.0251 1.41812 14.1874 2.27517C14.3725 3.24958 14.618 4.2146 14.8634 5.17626C15.8137 8.91697 16.7747 12.6557 17.7316 16.395C17.7725 16.5546 17.8155 16.7136 17.8738 16.9362C17.9234 16.7934 17.961 16.7049 17.9845 16.6123C19.1071 12.2318 20.2317 7.85203 21.3429 3.46753C21.4509 3.04034 21.5019 2.59036 21.5166 2.14909C21.5428 1.38325 21.1625 0.917838 20.4222 0.732077C20.111 0.654286 19.7971 0.587894 19.482 0.514797V0.165405H24.576C24.6571 0.408169 24.6082 0.55034 24.3319 0.587224C23.2528 0.729395 22.6875 1.42617 22.4172 2.41264C22.0752 3.66402 21.7399 4.91874 21.4194 6.17615C20.4738 9.88199 19.5369 13.5905 18.5961 17.2983C18.0321 19.5194 17.4627 21.7398 16.9054 23.9623C16.8659 24.1205 16.8129 24.1782 16.6479 24.1789C16.4789 24.1802 16.4528 24.085 16.4192 23.9569C15.3691 19.891 14.3175 15.8243 13.266 11.759C12.9662 10.6036 12.6685 9.4481 12.3687 8.29329C12.3493 8.21751 12.3218 8.14441 12.2788 8.00761Z" fill="#122842"/>
<path fill-rule="evenodd" clip-rule="evenodd" d="M34.2743 0.15621H34.6317V8.06145C34.2414 8.13388 34.2494 8.1312 34.1985 7.80997C33.9537 6.26956 33.5902 4.76402 32.8767 3.36445C32.422 2.47252 31.8527 1.67181 30.9896 1.1219C29.9743 0.475424 28.5143 0.496884 27.5976 1.17622C27.0229 1.60072 26.7472 2.20562 26.6232 2.88697C26.3509 4.38378 26.8693 5.65326 27.7733 6.80605C28.5338 7.7751 29.4458 8.59593 30.3579 9.41543C31.6092 10.5387 32.8847 11.6379 33.9329 12.9663C34.8275 14.0997 35.5142 15.3397 35.7456 16.7802C36.0869 18.906 35.7436 20.8763 34.2655 22.5361C33.4588 23.4421 32.4254 23.9678 31.2397 24.1891C29.6175 24.4916 28.0959 24.2381 26.6902 23.3448C26.3543 23.1322 26.0136 22.8707 25.5837 22.9378C25.3953 22.9666 25.1659 23.0605 25.0559 23.2033C24.8796 23.432 24.7636 23.7177 24.667 23.9947C24.6013 24.1811 24.4812 24.2025 24.3484 24.1616C24.2881 24.1429 24.2291 24.0108 24.2291 23.9296C24.2224 21.4403 24.2284 18.9509 24.2177 16.4609C24.2163 16.139 24.4048 16.2215 24.6147 16.2235C24.6697 16.581 24.718 16.9398 24.781 17.2972C25.0801 18.9878 25.6387 20.5732 26.7238 21.9325C27.3535 22.7198 28.112 23.3495 29.1078 23.6111C30.9514 24.0939 32.6078 23.1088 33.1436 21.2176C33.6727 19.3526 33.2475 17.6828 32.0914 16.1605C31.1626 14.9393 30.0299 13.92 28.9046 12.8919C27.7089 11.7988 26.4904 10.7278 25.5106 9.42348C24.8427 8.53357 24.3156 7.57525 24.1298 6.46136C23.8012 4.49444 24.4283 2.00376 26.3811 0.797992C27.4963 0.109938 28.7169 -0.0805176 30.0058 0.0287931C30.8903 0.103232 31.6776 0.423787 32.4301 0.873771C32.6889 1.02868 32.9766 1.14604 33.265 1.23456C33.5969 1.33717 33.8692 1.195 34.0268 0.882489C34.0851 0.766472 34.124 0.640396 34.1663 0.516332C34.2052 0.402327 34.236 0.284298 34.2743 0.15621Z" fill="#122842"/>
<path fill-rule="evenodd" clip-rule="evenodd" d="M41.578 0.509916V0.161865H48.9413C49.0232 0.501198 49.0231 0.499186 48.6992 0.578319C48.4786 0.631298 48.2573 0.681594 48.0414 0.748656C47.4043 0.947829 47.0871 1.34148 47.0368 2.00673C47.0093 2.37356 46.9905 2.74173 46.9905 3.10856C46.9878 8.26427 46.9878 13.4186 46.9892 18.5743C46.9892 19.7177 46.798 20.8196 46.2414 21.8322C45.4481 23.2747 44.1907 24.0298 42.5825 24.2444C41.466 24.3933 40.3775 24.3115 39.3716 23.7629C38.0304 23.0313 37.2612 21.8926 37.0379 20.3803C36.9286 19.6406 36.9963 18.9325 37.3571 18.2685C37.8346 17.39 38.7969 16.9434 39.6654 17.1795C40.511 17.4088 40.8879 18.0452 40.8718 18.8614C40.8591 19.5414 40.5687 20.0906 39.9986 20.4802C39.7311 20.6633 39.4568 20.8377 39.2046 21.0389C38.7701 21.3869 38.6715 21.7953 38.9149 22.2969C39.2952 23.0789 39.9765 23.4564 40.7953 23.612C41.4157 23.7307 42.0199 23.661 42.5644 23.323C43.1968 22.9293 43.4926 22.2983 43.6052 21.6029C43.7166 20.9155 43.7843 20.2133 43.7856 19.5179C43.7997 13.9417 43.795 8.36553 43.791 2.78935C43.791 2.50299 43.7628 2.21396 43.7259 1.92827C43.6394 1.25698 43.2404 0.869367 42.5899 0.727196C42.2519 0.653428 41.9133 0.581672 41.578 0.509916Z" fill="#122842"/>
</svg>
